data/styles/clear/style-clear/symbols/fuel-m.svg

<svg height="24" viewBox="0 0 24 24" width="24"><g fill="none" fill-rule="evenodd"><circle cx="12" cy="12" fill="#fff" opacity=".6" r="12"/><circle cx="12" cy="12" fill="#717065" r="11"/><path d="m14.3822158 11.7023718h.7687642c.7265244 0 1.3347774.6420449 1.3347774 1.3685693v.0506877l-.2872305 2.4836997c.0337918.5575653.4730856.9968591 1.0306509.9968591.3210224 0 .608253-.1520632.811004-.3886061.185855-.2534387.2365428-.5575652.1689591-.8785876l-.6589407-3.1088487c-.0675837-.2196469-.1182714-.4899815-.1182714-.7265244v-.7603162l-.3379184-.4899816c.016896-1.26719373-1.3685692-2.55128339-1.3685692-2.55128339l.3717102-.59135708c2.8385139 1.08133866 2.6357629 3.02436907 2.6357629 3.02436907l-.5068775.608253h-.0506877v.7603162c0 .1858551.0506877.3548143.1013755.5575653l.6758367 3.1088486c.1182714.5068775.0168959 1.0644428-.3210225 1.5206325-.3379183.4392938-.8447958.6758367-1.3854651.6758367-.9799632 0-1.7571753-.7772122-1.7571753-1.7571754v-.0506877l.2703346-2.5174916c0-.3379183-.2703346-.608253-.608253-.608253h-.7687642v4.6444276h.922777v.9227769h-8.3049928v-.9227769h.92277698v-10.07110998c0-.55441165.45187332-1.00221382 1.00928732-1.00221382h4.4408642c.5653039 0 1.0092873.44870641 1.0092873 1.00221382zm-5.53666184-2.84820638v1.67388498c0 .5560092.44822757 1.0086115 1.0011443 1.0086115h2.61159624c.5587457 0 1.0011444-.4515708 1.0011444-1.0086115v-1.67388498c0-.55600918-.4482276-1.00861146-1.0011444-1.00861146h-2.61159624c-.55874562 0-1.0011443.45157073-1.0011443 1.00861146z" fill="#fff"/></g></svg>

<svg width="24" height="24" viewBox="0 0 24 24">
  <g fill="none" fill-rule="evenodd">
    <circle cx="12" cy="12" r="12" fill="#FFF" opacity=".6"/>
    <circle cx="12" cy="12" r="11" fill="#717065"/>
    <path fill="#FFF" d="M8.9320643,6 L13.3729285,6 C13.9382324,6 14.3822158,6.44870641 14.3822158,7.00221382 L14.3822158,17.0733238 L15.3049928,17.0733238 L15.3049928,17.9961007 L7,17.9961007 L7,17.0733238 L7.92277698,17.0733238 L7.92277698,7.00221382 C7.92277698,6.44780217 8.3746503,6 8.9320643,6 Z M8.84555396,8.85416542 L8.84555396,10.5280504 C8.84555396,11.0840596 9.29378153,11.5366619 9.84669826,11.5366619 L12.4582945,11.5366619 C13.0170402,11.5366619 13.4594389,11.0850911 13.4594389,10.5280504 L13.4594389,8.85416542 C13.4594389,8.29815624 13.0112113,7.84555396 12.4582945,7.84555396 L9.84669826,7.84555396 C9.28795264,7.84555396 8.84555396,8.29712469 8.84555396,8.85416542 Z M18.2767246,12.0571861 L18.9525613,15.1660347 C19.0708327,15.6729122 18.9694572,16.2304775 18.6315388,16.6866672 C18.2936205,17.125961 17.786743,17.3625039 17.2460737,17.3625039 C16.2661105,17.3625039 15.4888984,16.5852917 15.4888984,15.6053285 L15.4888984,15.5546408 L15.759233,13.0371492 C15.759233,12.6992309 15.4888984,12.4288962 15.15098,12.4288962 L14.3822158,12.4288962 L14.3822158,11.7023718 L15.15098,11.7023718 C15.8775044,11.7023718 16.4857574,12.3444167 16.4857574,13.0709411 L16.4857574,13.1216288 L16.1985269,15.6053285 C16.2323187,16.1628938 16.6716125,16.6021876 17.2291778,16.6021876 C17.5502002,16.6021876 17.8374308,16.4501244 18.0401818,16.2135815 C18.2260368,15.9601428 18.2767246,15.6560163 18.2091409,15.3349939 L17.5502002,12.2261452 C17.4826165,12.0064983 17.4319288,11.7361637 17.4319288,11.4996208 L17.4319288,10.7393046 L17.0940104,10.249323 C17.1109064,8.98212927 15.7254412,7.69803961 15.7254412,7.69803961 L16.0971514,7.10668253 C18.9356653,8.18802119 18.7329143,10.1310516 18.7329143,10.1310516 L18.2260368,10.7393046 L18.1753491,10.7393046 L18.1753491,11.4996208 C18.1753491,11.6854759 18.2260368,11.8544351 18.2767246,12.0571861 Z"/>
  </g>
</svg>
